X: 31204
T: Paddy Fahey's
R: reel
M: 4/4
K: Ddorian
|:D3E FEFG|Addc ~d3e|fedf edcA|dcAG FGEF|
[1 D3E FEFG|Addc ~d3e|fedf edcA|dcAG FGEF:|
[2 D3E FEFG|Addc ~d3e|fgaf edce|dcAG FGD2||
|:A~d3 A~d3|c2Bc GcBc|A~d3 A~d3|cBcd ede^g|
a2^ga ABc/B/A|dcAG FGEF|D3E FEFG|Addc d4:|

